X: 1
T: December Wedding, The
M: 9/8
L: 1/8
R: slip jig
K: Bmin
ag|:f2 B BAF BAB| fge fde cdA|f2 B BAF BAB| fbf ecd B2 g |
f2 B BAF BAB| fge fde cdA|f2 B BAF BAB| fbf ecd BFA:|
 BdB eBf gfe | BdB eBf g3| BdB eBf bfe | Bdc BFA BFA|
BdB eBf gfe | BdB eBf b3| BdB eBf bfe | Bdc BFA Bag:|
